X:1
T:Vedrò con mio diletto
%%score { 1 | 2 }
L:1/8
M:3/4
K:D
V:1 treble nm="Piano" snm="Pno."
V:2 bass 
V:1
 z [DF] [DF][Fd] [Fd][DG] | [CEG][CF] [CF][Fc] [Fc][CF] | [B,DF][B,E] [B,E][DB] [DB][B,E] | %3
 [^A,CE]2 z [Ec] [Ec][CE] | [B,E][B,D] [B,D][DB] [DB][DF] | [CE][Ec] D[DB] [^A,C][Cc] | [DB]2 z4 | %7
 z6 | z [DF] [DF][Fd] [Fd][DG] | [CEG][CF] [CF][Fc] [Fc][CF] | [B,DF][B,E] [B,E][DB] [DB][B,E] | %11
 Ec DB C^A | z [DF] [DF][Fd] [Fd][DG] | [CEG][CF] [CF][Fc] [Fc][CF] | %14
 [B,DF][B,E] [B,E][DB] [DB][B,E] | [A,CE][A,D] [A,D][DA] [DA][A,D] | %16
 [G,B,D][G,C] [G,C][CA] [CA][Ec] | [DA][DF] [DF][Ad] [Ad][=CA] | [DB][B,DG] [B,DG][EBe] [EBe][GB] | %19
 [Ec][CA] [CA][Ace] [Ace][EAc] | [DAd][DA] [DA][Af] [Af][Ad] | [EB][EB] [CA][CA] [CA][CE] | %22
 [A,F][A,CF] [A,CF][A,F] [A,F][DFA] | [DFA][FAd] [FAd][Af] [Af][FA] | %24
 [B,F][B,F] [FB][F=c] [FB][B,FA] | [B,FA][FB] [EGB][Bg] [Bg][GB] | [FA=c][FB] [FB][Bf] [Bf][FB] | %27
 [EGB][EA] [EA][Ae] [Ae][EA] | [EFA][^DF] [DF][FA] [FA][FA^d] | [GB][GBe] [Gce][ceg] [ceg][Gce] | %30
 [Gce][Bd] [FBd][Bdf] [Fdf][DFB] | [DFB][DF] [DF][Fd] [Fd][DGd] | [CEGc][CE] [CE][DB] [DB][DGd] | %33
 [DB][B,D] [B,D][DB] [DB][B,D] | [CE^A][^A,CE] [A,CE][A,A,CEA] [A,CA][A,CF] | %35
 [B,DF][B,D] [B,D][DFB] [DFB][DFBd] | [EGB][B,EG] [B,E][EGB] [EGB][GBe] | %37
 [CFAc][CFA] [CF][FAc] [FAc][CFcf] | [F^Ae][^A,CF] [A,CF][CFB] [CFB][CF^A] | %39
 z [DF] [DF][Fd] [Fd][DG] | [CEG][CF] [CF][Fc] [Fc][CF] | [B,DF][B,E] [B,E][DB] [DB][B,E] | %42
 [^A,CE]2 z z z [DB] | ^Gc c[d^e] [c^e][Bc] | [Ac][^GB] [FA]c dd | B^G Gc cG | AF FB BF | %47
 ^G^E ^Ec c[^EG] | AF F[^Gc] [Fc][Fd] | B^G Gc cG | AF FB BF | ^G^E ^Ec c[^EG] | FA Ac cA | %53
 FF ^Gc [^Ec][C^E] | [CF]6 | z [DF] [DF][Fd] [Fd][DG] | [CEG][CF] [CF][Fc] [Fc][CF] | %57
 [B,DF][B,E] [B,E][DB] [DB][B,E] | [^A,CE]2 z [Ec] [Ec][CE] | [B,E][B,D] [B,D][DB] [DB][DF] | %60
 [CE][Ec] D[DB] [^A,C][Cc] | [DB]2 z4 | z6 | z [DF] [DF][Fd] [Fd][DG] | %64
 [CEG][CF] [CF][Fc] [Fc][CF] | [B,DF][B,E] [B,E][DB] [DB][B,E] | Ec DB C^A | %67
 z [DF] [DF][Fd] [Fd][DG] | [CEG][CF] [CF][Fc] [Fc][CF] | [B,DF][B,E] [B,E][DB] [DB][B,E] | %70
 [A,CE][A,D] [A,D][DA] [DA][A,D] | [G,B,D][G,C] [G,C][CA] [CA][Ec] | [DA][DF] [DF][Ad] [Ad][=CA] | %73
 [DB][B,DG] [B,DG][EBe] [EBe][GB] | [Ec][CA] [CA][Ace] [Ace][EAc] | [DAd][DA] [DA][Af] [Af][Ad] | %76
 [EB][EB] [CA][CA] [CA][CE] | [A,F][A,CF] [A,CF][A,F] [A,F][DFA] | [DFA][FAd] [FAd][Af] [Af][FA] | %79
 [B,F][B,F] [FB][F=c] [FB][B,FA] | [B,FA][FB] [EGB][Bg] [Bg][GB] | [FA=c][FB] [FB][Bf] [Bf][FB] | %82
 [EGB][EA] [EA][Ae] [Ae][EA] | [EFA][^DF] [DF][FA] [FA][FA^d] | [GB][GBe] [Gce][ceg] [ceg][Gce] | %85
 [Gce][Bd] [FBd][Bdf] [Fdf][DFB] | [DFB][DF] [DF][Fd] [Fd][DGd] | [CEGc][CE] [CE][DB] [DB][DGd] | %88
 [DB][B,D] [B,D][DB] [DB][B,D] | [CE^A][^A,CE] [A,CE][A,A,CEA] [A,CA][A,CF] | %90
 [B,DF][B,D] [B,D][DFB] [DFB][DFBd] | [EGB][B,EG] [B,E][EGB] [EGB][GBe] | %92
 [CFAc][CFA] [CF][FAc] [FAc][CFcf] | [F^Ae][^A,CF] [A,CF][CFB] [CFB][CF^A] | %94
 z [DF] [DF][Fd] [Fd][DG] | [CEG][CF] [CF][Fc] [Fc][CF] | [B,DF][B,E] [B,E][DB] [DB][B,E] | %97
 [^A,CE]2 z4 |] %98
V:2
 B,,B, B,B, B,B, | ^A,,^A, [=A,,=A,]A, A,A, | ^G,,^G, [=G,,=G,]G, G,G, | %3
 [F,,F,]2 z [F,^A,] [F,A,][F,A,] | B,,B, B,B, B,B, | [C,^A,]A, [F,B,]B, [F,,F,]F, | [B,,F,]2 z4 | %7
 z6 | B,,B, B,B, B,B, | ^A,,^A, [=A,,=A,]A, A,A, | ^G,,^G, [=G,,=G,]G, G,G, | %11
 [F,^A,C] z B, z A, z | B,,B, B,B, B,B, | ^A,,^A, [=A,,=A,]A, A,A, | ^G,,^G, [=G,,=G,]G, G,G, | %15
 F,,F, F,F, F,F, | E,,E, A,,G, G,G, | [D,F,]A, A,F, [D,F,]F, | [G,,G,]G, G,G, [G,,G,]E, | %19
 A,,E, E,E, G,,E, | F,,F, F,D, D,F, | G,,G, A,,E, E,A, | D,,D, D,D, D,D, | D,D, D,D, D,D, | %24
 ^D,,^D, D,D, D,D, | E,,E, E,E, E,E, | ^D,,^D, =D,,=D, D,D, | C,,C, =C,,=C, C,C, | %28
 B,,,B,, B,,B,, B,,B,, | E,,E, ^A,,,^A,, A,,A,, | B,,,B,, B,,B,, B,,B,, | B,,B, B,B, B,B, | %32
 ^A,,^A, [=A,,=A,]A, A,A, | ^G,,^G, [=G,,=G,]G, G,G, | F,,F, F,F, F,F, | B,,,B,, B,,B,, B,,B,, | %36
 E,,E, E,E, E,E, | F,,F, F,F, F,F, | B,, z F, z F,, z | B,,B, B,B, B,B, | %40
 ^A,,^A, [=A,,=A,]A, A,A, | ^G,,^G, [=G,,=G,]G, G,G, | [F,,F,]2 z z z B, | [^E,^G,C]6 | %44
 [F,A,C]4 [F,A,]2 | [^E,^G,D]2 [=E,G,C]4 | [^D,F,C]2 [=D,F,B,]4 | [C,E,B,]6 | [F,A,C]4 [F,A,]2 | %49
 [^E,^G,D]2 [=E,G,C]4 | [^D,F,C]2 [=D,F,B,]4 | [C,E,B,]6 | [F,A,C]6- | C2 [C,^G,C]4 | [F,A,]6 | %55
 B,,B, B,B, B,B, | ^A,,^A, [=A,,=A,]A, A,A, | ^G,,^G, [=G,,=G,]G, G,G, | %58
 [F,,F,]2 z [F,^A,] [F,A,][F,A,] | B,,B, B,B, B,B, | [C,^A,]A, [F,B,]B, [F,,F,]F, | [B,,F,]2 z4 | %62
 z6 | B,,B, B,B, B,B, | ^A,,^A, [=A,,=A,]A, A,A, | ^G,,^G, [=G,,=G,]G, G,G, | %66
 [F,^A,C] z B, z A, z | B,,B, B,B, B,B, | ^A,,^A, [=A,,=A,]A, A,A, | ^G,,^G, [=G,,=G,]G, G,G, | %70
 F,,F, F,F, F,F, | E,,E, A,,G, G,G, | [D,F,]A, A,F, [D,F,]F, | [G,,G,]G, G,G, [G,,G,]E, | %74
 A,,E, E,E, G,,E, | F,,F, F,D, D,F, | G,,G, A,,E, E,A, | D,,D, D,D, D,D, | D,D, D,D, D,D, | %79
 ^D,,^D, D,D, D,D, | E,,E, E,E, E,E, | ^D,,^D, =D,,=D, D,D, | C,,C, =C,,=C, C,C, | %83
 B,,,B,, B,,B,, B,,B,, | E,,E, ^A,,,^A,, A,,A,, | B,,,B,, B,,B,, B,,B,, | B,,B, B,B, B,B, | %87
 ^A,,^A, [=A,,=A,]A, A,A, | ^G,,^G, [=G,,=G,]G, G,G, | F,,F, F,F, F,F, | B,,,B,, B,,B,, B,,B,, | %91
 E,,E, E,E, E,E, | F,,F, F,F, F,F, | B,, z F, z F,, z | B,,B, B,B, B,B, | %95
 ^A,,^A, [=A,,=A,]A, A,A, | ^G,,^G, [=G,,=G,]G, G,G, | [F,,F,]2 z4 |] %98

